X:1
T:All People That On Earth Do Dwell
T:All People That On Earth Do Dwell
T:Traditional Arranged by DANIEL RAY
T:Copyright © DANIEL RAY - No Rights Reserved
T:Copyright © DANIEL RAY - No Rights Reserved
Z:Copyright © DANIEL RAY - No Rights Reserved
%%score 1 2 3 4
L:1/8
Q:1/4=100
M:4/4
K:G
V:1 treble nm="Oboe 1" snm="Ob."
V:2 treble nm="Oboe 2" snm="Ob."
V:3 bass nm="Bassoon 1" snm="Bsn."
V:4 bass nm="Bassoon 2" snm="Bsn."
V:1
"^Moderato" z2!f! g2 (gf)ed | g2 a2 b2 b2 | b4 c'2 b2 | a2 g2 (ab)ag | e2 f2 g2 d'2 | %5
 b2 g2 (ac')bb |"_dim." aa g2 g2 g2 | z2!p! g2 (gf)ed | g2 a2 b2 b2 | bb(ag) c'2 b2 | %10
 a2 g2 (ab)ag | e2 f2 g2 d'2 | b2 g2 (ac')bb |"_cresc." aa g2 g2 g2 ||"^15" z2!f! ((dB)) z G(Bd) | %15
 z B(dG) z G(dg) | ff(ec) z c(de) | d2 c2 z F(GB) | z e(fg) z f(eg) | (af)dA D2 A2 | %20
"_dim." G2 F2 (GB)(DA) | G2!p! (dB) z G(Bd) | z B(dG) z G(dg) | ff(ec) z c(de) | d2 c2 z F(GB) | %25
 z e(fg) z f(eg) | (af)dA D2 A2 |"_cresc." G2 F2 (GB)(DA) ||"^29" G2!f! g2 (gf)ed | g2 a2 b2 b2 | %30
 bb(ag) c'2 b2 | a2 g2 (ab)ag | e2 f2 g2 d'2 | b2 g2 (ac')bb | a(a g2) g2 g2 | !fermata!g8 |] %36
V:2
 z2!f! B2 (AB)cA | B2 c(d f)g d2 | z d(gd) cc(Ad) | (Gd)ed (ag) f2- | f2 (fe) dc(BA) | %5
 AB G2 z2 de |"_dim." (fe)dc d2 B2 | G2!p! B2 (AB)cA | B2 (cd) (fg) d2 | z d(gd) cc(Ad) | %10
 (Gd)ed (ag) f2- | f2 (fe) dc(BA) | AB G2 z2 de |"_cresc." (fe)dc d2 B2 || G2!f! B2 (AB)cA | %15
 B2 (cd) (fg) d2 | z d(gd) cc(Ad) | G(de)d (ag) f2- | f2 (fe) (dc)BA | (AB) G2 z2 de | %20
"_dim." (fe)dc d2 B2 | G2!p! B2 (AB)cA | B2 (cd) (fg) d2 | z d(gd) cc(Ad) | (Gd)ed (ag) f2- | %25
 f2 (fe) dc(BA) | AB G2 z2 de |"_cresc." (fe)dc d2 B2 || G2!f! B2 (AB)cA | B2 (cd) (fg) d2 | %30
 z d(gd) ccAd | G(de)d (ag) f2- | f2 (fe) (dc)BA | AB G2 z2 de | (fe)dc d2 d2 | !fermata!G8 |] %36
V:3
 z2!f! (DB,) z G,(B,D) | z B,(DG,) z G,(EG) | FF(EC) z C(DE) | D2 C2 z F,(G,B,) | z E(FG) z F(EG) | %5
 (AF)DA, D,2 A,2 |"_dim." G,2 F,2 (G,B,)(D,A,) | G,2!p! (DB,) z G,(B,D) | z B,(DG,) z G,(DG) | %9
 FFEC z C(DE) | D2 C2 z F,(G,B,) | z E(FG) z F(EG) | (AF)DA, D,2 A,2 | %13
"_cresc." G,2 F,2 (G,B,)(D,A,) || G,2!f! G,2 (G,F,)E,D, | G,2 A,2 B,2 B,2 | B,B,(A,G,) C2 B,2 | %17
 A,2 G,2 (A,B,)A,G, | E,2 F,2 G,2 D2 | B,2 G,2 (A,C)B,B, |"_dim." A,A, G,2 G,2 G,2 | %21
 z2!p! G,2 (G,F,)E,D, | G,2 A,2 B,2 B,2 | B,B,(A,G,) C2 B,2 | A,2 G,2 (A,B,)A,G, | E,2 F,2 G,2 D2 | %26
 B,2 G,2 (A,C)B,B, |"_cresc." A,A, G,2 G,2 G,2 || G,2!f! (DB,) z G,(B,D) | z B,(DG,) z G,(DG) | %30
 FFEC z C(DE) | D2 C2 z F,(G,B,) | z E(FG) z F(EG) | (AF)DA, D,2 A,2 | G,2 F,2 (G,B,)(D,A,) | %35
 !fermata!G,8 |] %36
V:4
 z4 G,,2 z2 | G,,2 z2 G,,2 z2 | G,,2 z2 C,,2 z2 | D,,2 z2 D,,2 z2 | E,,2 z2 G,,2 z2 | %5
 G,,2 z2 D,,2 z2 |"_dim." D,,2 z2 G,,2 z2 | G,,2 z2!p! G,,2 z2 | G,,2 z2 G,,2 z2 | %9
 G,,2 z2 C,,2 z2 | D,,2 z2 D,,2 z2 | E,,2 z2 G,,2 z2 | G,,2 z2 D,,2 z2 | %13
"_cresc." D,,2 z2 G,,2 z2 || G,,2 z2!f! G,,2 z2 | G,,2 z2 G,,2 z2 | G,,2 z2 C,,2 z2 | %17
 D,,2 z2 D,,2 z2 | E,,2 z2 G,,2 z2 | G,,2 z2 D,,2 z2 |"_dim." D,,2 z2 G,,2 z2 | %21
 G,,2 z2!p! G,,2 z2 | G,,2 z2 G,,2 z2 | G,,2 z2 C,,2 z2 | D,,2 z2 D,,2 z2 | E,,2 z2 G,,2 z2 | %26
 G,,2 z2 D,,2 z2 |"_cresc." D,,2 z2 G,,2 z2 || z4 G,,2 z2 | G,,2 z2 G,,2 z2 | G,,2 z2 C,,2 z2 | %31
 D,,2 z2 D,,2 z2 | E,,2 z2 G,,2 z2 | G,,2 z2 D,,2 z2 | D,,2 z2 G,,2 z2 | !fermata!G,,8 |] %36

